icons/editor-bold-1-filled.svg

<svg width="24" height="24" viewBox="0 0 24 24" fill="none" xmlns="http://www.w3.org/2000/svg">
<g id="bold-01">
<path id="Icon" d="M6 12V20H14.1C16.2539 20 18 18.2091 18 16C18 13.7909 16.2539 12 14.1 12H6ZM6 12H12.9C15.0539 12 16.8 10.2091 16.8 8C16.8 5.79086 15.0539 4 12.9 4H6V12Z" stroke="black" stroke-width="2" stroke-linecap="round" stroke-linejoin="round"/>
</g>
</svg>

<svg xmlns="http://www.w3.org/2000/svg" width="24" height="24" fill="none" viewBox="0 0 24 24"><path stroke="currentColor" stroke-linecap="round" stroke-linejoin="round" stroke-width="2" d="M6 12v8h8.1c2.154 0 3.9-1.79 3.9-4s-1.746-4-3.9-4zm0 0h6.9c2.154 0 3.9-1.79 3.9-4s-1.746-4-3.9-4H6z"/></svg>
